X: 36616
T: Shan Van Vocht, The
R: reel
M: 4/4
K: Gmajor
A|:BGAG EGDE|G2 G2 G2 GA|BGAG EGDE|A2 A2 A3d|
BABd e2ge|dBAG A2GA|BGAG E2DE|G2 G2 G3A:|

